images/social/uicn.svg

<svg height="30" viewBox="0 0 30 30" width="30" xmlns="http://www.w3.org/2000/svg"><g fill="#fff" transform="translate(6 5)"><g transform="translate(4 6.5)"><path d="m6.48650925 3.43004527c0 1.63175689-1.35488727 2.95461055-3.02629424 2.95461055-1.67128345 0-3.02617072-1.32285366-3.02617072-2.95461055v-2.25519133c0-.38633652.32076634-.69963046.71662834-.69963046.39578477 0 .71655111.31314306.71655111.69963046v2.25498009c0 .85894807.71324649 1.55534964 1.59299127 1.55534964.87980654 0 1.59306846-.69638647 1.59306846-1.55534964v-2.25498009c0-.38633652.32088989-.69963046.71655112-.69963046.39572301 0 .71647391.31314306.71647391.69963046v2.25517624h.00020075z"/><path d="m9.56595571 5.6849801c0 .38636669-.32068914.69966064-.71647391.69966064-.39581566 0-.7166901-.31329395-.7166901-.69966064v-4.51012616c0-.38633652.32087443-.69963046.7166901-.69963046.39580021 0 .71647391.31314306.71647391.69963046z"/></g><path d="m8.9999422.3c-.55660253 0-1.09179534.12831225-1.51799281.37348003l-5.66200671 3.25687499c-.42643918.24523962-.8060269.64334337-1.0847214 1.12429332-.27882334.48117227-.43522128 1.00830674-.43522128 1.49987966v6.5138419c0 .4915204.15639916 1.0186135.43522122 1.4997837.27866881.4809056.65821932.8790092 1.08466861 1.124359l5.66207584 3.2568762c.42623329.2451364.96141225.3734323 1.51797653.3734323.55663128 0 1.0918078-.1282951 1.5179555-.3734534l5.6621333-3.256859c.4265629-.2454783.8061148-.6436087 1.0847534-1.12448.2788195-.4811903.4352156-1.0083185.4352156-1.49987v-6.5136499c0-.4915418-.1563904-1.01866614-.4351887-1.49983744-.2786423-.48094428-.6581953-.87905941-1.0846809-1.12434083l-5.6622611-3.25684695c-.4260541-.24515648-.96126879-.37348358-1.5179271-.37348358zm0 1.4c.32270258 0 .61776837.07074719.81979556.18699598l5.66239294 3.25692282c.2018326.1160784.4103809.33482588.5713166.61260537.1608298.27757214.2465527.56650708.2465527.79798463v6.5136499c0 .2314797-.0857245.5204114-.2465529.7979713-.160966.2777932-.3696211.4966616-.5715856.6128881l-5.66204649 3.2568091c-.20208687.1162585-.49715615.1869939-.81987281.1869939-.322685 0-.61780733-.0707483-.8199659-.1870142l-5.66198047-3.2568214c-.2018533-.1161326-.41047206-.334949-.57145068-.6127538-.16082573-.277541-.24654515-.5664308-.24654515-.7978618v-6.5138419c0-.23149686.0857226-.52042226.24654518-.79795774.16096914-.27778838.36955766-.49655171.5713951-.6126258l5.66207855-3.25691631c.20213818-.11627889.4972347-.18702815.81992337-.18702815z"/></g></svg>

<?xml version="1.0" encoding="UTF-8"?>
<svg width="30px" height="30px" viewBox="0 0 30 30" version="1.1" xmlns="http://www.w3.org/2000/svg" xmlns:xlink="http://www.w3.org/1999/xlink">
    <title>uicn</title>
    <g id="uicn" stroke="none" stroke-width="1" fill="none" fill-rule="evenodd">
        <g id="uich-2x" transform="translate(6.000000, 5.000000)" fill="#FFFFFF" fill-rule="nonzero">
            <g id="编组" transform="translate(4.000000, 6.500000)">
                <path d="M6.48650925,3.43004527 C6.48650925,5.06180216 5.13162198,6.38465582 3.46021501,6.38465582 C1.78893156,6.38465582 0.43404429,5.06180216 0.43404429,3.43004527 L0.43404429,1.17485394 C0.43404429,0.78851742 0.75481063,0.47522348 1.15067263,0.47522348 C1.5464574,0.47522348 1.86722374,0.78836654 1.86722374,1.17485394 L1.86722374,3.42983403 C1.86722374,4.2887821 2.58047023,4.98518367 3.46021501,4.98518367 C4.34002155,4.98518367 5.05328347,4.2887972 5.05328347,3.42983403 L5.05328347,1.17485394 C5.05328347,0.78851742 5.37417336,0.47522348 5.76983459,0.47522348 C6.1655576,0.47522348 6.4863085,0.78836654 6.4863085,1.17485394 L6.4863085,3.43003018 L6.48650925,3.43003018 L6.48650925,3.43004527 Z" id="路径"></path>
                <path d="M9.56595571,5.6849801 C9.56595571,6.07134679 9.24526657,6.38464074 8.8494818,6.38464074 C8.45366614,6.38464074 8.1327917,6.07134679 8.1327917,5.6849801 L8.1327917,1.17485394 C8.1327917,0.78851742 8.45366613,0.47522348 8.8494818,0.47522348 C9.24528201,0.47522348 9.56595571,0.78836654 9.56595571,1.17485394 L9.56595571,5.6849801 Z" id="路径"></path>
            </g>
            <path d="M8.9999422,0.3 C8.44333967,0.3 7.90814686,0.428312249 7.48194939,0.673480025 L1.81994268,3.93035502 C1.3935035,4.17559464 1.01391578,4.57369839 0.735221276,5.05464834 C0.456397943,5.53582061 0.3,6.06295508 0.3,6.554528 L0.3,13.0683699 C0.3,13.5598903 0.456399158,14.0869834 0.735221216,14.5681536 C1.01389003,15.0490592 1.39344054,15.4471628 1.81988983,15.6925126 L7.48196567,18.9493888 C7.90819896,19.1945252 8.44337792,19.3228211 8.9999422,19.3228211 C9.55657348,19.3228211 10.09175,19.194526 10.5178977,18.9493677 L16.180031,15.6925087 C16.6065939,15.4470304 16.9861458,15.0489 17.2647844,14.5680287 C17.5436039,14.0868384 17.7,13.5597102 17.7,13.0681587 L17.7,6.5545088 C17.7,6.062967 17.5436096,5.53584266 17.2648113,5.05467136 C16.986169,4.57372708 16.606616,4.17561195 16.1801304,3.93033053 L10.5178693,0.673483581 C10.0918152,0.428327098 9.55660051,0.3 8.9999422,0.3 Z M8.9999422,1.7 C9.32264478,1.7 9.61771057,1.77074719 9.81973776,1.88699598 L15.4821307,5.1439188 C15.6839633,5.2599972 15.8925116,5.47874468 16.0534473,5.75652417 C16.2142771,6.03409631 16.3,6.32303125 16.3,6.5545088 L16.3,13.0681587 C16.3,13.2996384 16.2142755,13.5885701 16.0534471,13.86613 C15.8924811,14.1439232 15.683826,14.3627916 15.4818615,14.4790181 L9.81981501,17.7358272 C9.61772814,17.8520857 9.32265886,17.9228211 8.9999422,17.9228211 C8.6772572,17.9228211 8.38213487,17.8520728 8.1799763,17.7358069 L2.51799583,14.4789855 C2.31614253,14.3628529 2.10752377,14.1440365 1.94654515,13.8662317 C1.78571942,13.5886907 1.7,13.2998009 1.7,13.0683699 L1.7,6.554528 C1.7,6.32303114 1.7857226,6.03410574 1.94654518,5.75657026 C2.10751432,5.47878188 2.31610284,5.26001855 2.51794028,5.14394446 L8.18001883,1.88702815 C8.38215701,1.77074926 8.67725353,1.7 8.9999422,1.7 Z" id="路径"></path>
        </g>
    </g>
</svg>
